assets/svg/wallet_icon_profile_emptyprofile.svg

<svg width="49" height="48" viewBox="0 0 49 48" fill="none" xmlns="http://www.w3.org/2000/svg">
<path d="M24.5622 4.83188H17.6725C17.1081 4.83188 16.6066 4.47094 16.4275 3.93469L15.6156 1.5H26.62L25.8081 3.93469C25.7207 4.19597 25.5534 4.42317 25.3298 4.58417C25.1062 4.74517 24.8377 4.83182 24.5622 4.83188ZM30.7159 40.8612V42.3122C30.7159 43.7184 29.5759 44.8584 28.1697 44.8584H16.9141C16.0084 44.8584 15.2734 45.5934 15.2734 46.4991H28.1697C30.4825 46.4991 32.3566 44.6241 32.3566 42.3122V41.5128L30.7159 40.8612Z" fill="#E1EAF8"/>
<path d="M28.1666 46.828H14.0619C11.5719 46.828 9.54688 44.8021 9.54688 42.313V37.0743C9.54688 36.8934 9.69406 36.7462 9.875 36.7462C10.0559 36.7462 10.2031 36.8934 10.2031 37.0743V42.313C10.2031 44.4412 11.9347 46.1718 14.0619 46.1718H28.1666C30.2947 46.1718 32.0253 44.4402 32.0253 42.313V32.5137C32.0253 32.3327 32.1725 32.1855 32.3534 32.1855C32.5344 32.1855 32.6816 32.3327 32.6816 32.5137V42.313C32.6816 44.8021 30.6566 46.828 28.1666 46.828Z" fill="#9A9A9A"/>
<path d="M32.0253 5.68687V11.8144C32.0253 11.9953 32.1725 12.1425 32.3534 12.1425C32.5344 12.1425 32.6816 11.9953 32.6816 11.8144V5.68687C32.6816 3.19687 30.6556 1.17188 28.1666 1.17188H14.0619C11.5719 1.17188 9.54688 3.19781 9.54688 5.68687V34.5225C9.54688 34.7034 9.69406 34.8506 9.875 34.8506C10.0559 34.8506 10.2031 34.7034 10.2031 34.5225V5.68687C10.2031 3.55875 11.9347 1.82812 14.0619 1.82812H28.1666C30.2947 1.82812 32.0253 3.55969 32.0253 5.68687Z" fill="#9A9A9A"/>
<path d="M22.2841 18.8391C22.2353 18.8391 22.1856 18.8278 22.1388 18.8053L19.9506 17.7207C19.8742 17.6811 19.8165 17.6131 19.7897 17.5313C19.763 17.4496 19.7694 17.3606 19.8076 17.2835C19.8458 17.2064 19.9128 17.1475 19.9941 17.1193C20.0754 17.0911 20.1645 17.096 20.2422 17.1328L22.4294 18.2166C22.5073 18.2553 22.5667 18.3233 22.5945 18.4058C22.6223 18.4882 22.6162 18.5783 22.5775 18.6563C22.5505 18.7111 22.5088 18.7573 22.4569 18.7896C22.405 18.8219 22.3452 18.839 22.2841 18.8391ZM20.2281 27.3441C20.1072 27.3441 19.99 27.2766 19.9328 27.1603C19.8946 27.0823 19.8889 26.9922 19.9171 26.9099C19.9452 26.8277 20.0048 26.7599 20.0828 26.7216L22.2756 25.6472C22.3537 25.609 22.4438 25.6033 22.526 25.6314C22.6083 25.6596 22.676 25.7192 22.7144 25.7972C22.7526 25.8753 22.7583 25.9654 22.7302 26.0476C22.702 26.1299 22.6424 26.1976 22.5644 26.236L20.3725 27.3103C20.3256 27.3338 20.276 27.3441 20.2281 27.3441ZM42.6813 17.3019C42.5678 17.3019 42.4572 17.2428 42.3963 17.1369C42.3748 17.0995 42.3608 17.0583 42.3553 17.0156C42.3497 16.9728 42.3526 16.9294 42.3638 16.8878C42.3751 16.8462 42.3944 16.8072 42.4207 16.773C42.447 16.7389 42.4798 16.7102 42.5172 16.6888L44.6331 15.4719C44.7086 15.4293 44.7977 15.4183 44.8813 15.4412C44.9648 15.4641 45.0359 15.519 45.079 15.5941C45.1222 15.6692 45.134 15.7583 45.1117 15.842C45.0895 15.9257 45.0351 15.9972 44.9603 16.041L42.8444 17.2578C42.7938 17.2878 42.7366 17.3019 42.6813 17.3019ZM36.4272 13.2866C36.3804 13.2867 36.3342 13.2768 36.2916 13.2575C36.2489 13.2383 36.2109 13.2101 36.1801 13.1749C36.1493 13.1398 36.1264 13.0984 36.1129 13.0536C36.0994 13.0088 36.0956 12.9617 36.1019 12.9153L36.4263 10.4957C36.4506 10.3157 36.6156 10.1891 36.7947 10.2144C36.9747 10.2388 37.1003 10.4038 37.076 10.5828L36.7516 13.0025C36.741 13.0811 36.7022 13.1531 36.6426 13.2053C36.583 13.2576 36.5065 13.2864 36.4272 13.2866Z" fill="#0166FF"/>
<path d="M31.9709 29.94C33.1757 29.94 34.3364 29.6566 35.3781 29.1211L35.8473 29.5904C36.0246 29.7677 36.2568 29.8559 36.4896 29.8559C36.7225 29.8559 36.9546 29.7677 37.1319 29.5904L38.8893 27.833L42.681 31.6246C43.1096 32.0533 43.1096 32.7511 42.681 33.1804C42.473 33.3884 42.1968 33.5023 41.9034 33.5023C41.61 33.5023 41.3337 33.3876 41.1258 33.1804L38.0134 30.0681C37.9159 29.9706 37.7585 29.9706 37.661 30.0681C37.5634 30.1657 37.5634 30.323 37.661 30.4206L40.7726 33.5322C41.0746 33.8341 41.4762 34 41.9027 34C42.3299 34 42.7308 33.8341 43.0327 33.5315C43.6558 32.9084 43.6558 31.8945 43.0327 31.2715L39.2261 27.4649C39.4518 27.1139 39.4112 26.6397 39.1043 26.3328L38.6308 25.8593C39.1598 24.8226 39.4404 23.6676 39.4404 22.47C39.4404 20.4749 38.6635 18.5993 37.2522 17.1881C35.8416 15.7775 33.9654 15 31.9702 15C29.975 15 28.0994 15.7768 26.6882 17.1881C25.2776 18.5986 24.5 20.4749 24.5 22.47C24.5 24.4651 25.2769 26.3406 26.6882 27.7519C28.0994 29.1624 29.9757 29.94 31.9709 29.94ZM38.7518 26.6852C38.8284 26.7621 38.8714 26.8662 38.8714 26.9747C38.8714 27.0832 38.8284 27.1873 38.7518 27.2641L36.7787 29.2372C36.7019 29.3138 36.5978 29.3568 36.4893 29.3568C36.3808 29.3568 36.2767 29.3138 36.1998 29.2372L35.8303 28.8676C36.3415 28.5579 36.8193 28.1848 37.2522 27.7512C37.6901 27.3133 38.0675 26.8298 38.3787 26.3121L38.7518 26.6852ZM27.0413 17.5405C28.3579 16.224 30.1089 15.4984 31.9709 15.4984C33.8329 15.4984 35.5839 16.2233 36.9005 17.5405C38.2171 18.8571 38.9427 20.608 38.9427 22.47C38.9427 24.332 38.2178 26.0829 36.9005 27.3994C35.5839 28.716 33.8329 29.4415 31.9709 29.4415C30.1089 29.4415 28.3579 28.7167 27.0413 27.3994C25.7247 26.0829 24.9992 24.332 24.9992 22.47C24.9992 20.608 25.7247 18.8578 27.0413 17.5405Z" fill="#9A9A9A"/>
<path d="M35.889 18.611C33.741 16.463 30.259 16.463 28.111 18.611C25.963 20.759 25.963 24.241 28.111 26.389C30.259 28.537 33.741 28.537 35.889 26.389C38.037 24.241 38.037 20.7583 35.889 18.611ZM35.4577 19.3722C35.436 19.3938 35.4103 19.4109 35.382 19.4226C35.3537 19.4343 35.3234 19.4403 35.2928 19.4403C35.2327 19.4403 35.1732 19.4176 35.1272 19.3715C34.4081 18.6524 33.4559 18.2004 32.4464 18.0989C32.4158 18.0958 32.3862 18.0868 32.3592 18.0723C32.3321 18.0578 32.3082 18.0381 32.2888 18.0144C32.2694 17.9906 32.2549 17.9633 32.246 17.9339C32.2372 17.9045 32.2343 17.8737 32.2374 17.8431C32.2404 17.8126 32.2494 17.783 32.2639 17.7559C32.2784 17.7289 32.2981 17.705 32.3219 17.6856C32.3456 17.6662 32.373 17.6516 32.4024 17.6428C32.4317 17.634 32.4626 17.631 32.4931 17.6341C33.6095 17.747 34.6624 18.2464 35.4577 19.0417C35.4794 19.0633 35.4967 19.0891 35.5084 19.1174C35.5202 19.1458 35.5263 19.1762 35.5263 19.2069C35.5263 19.2376 35.5202 19.268 35.5084 19.2964C35.4967 19.3247 35.4794 19.3505 35.4577 19.3722ZM36.2896 20.6695C36.2569 20.6855 36.2215 20.6929 36.1875 20.6929C36.1007 20.6929 36.0179 20.6448 35.9771 20.5613C35.9071 20.4177 35.8293 20.2779 35.7441 20.1427C35.6753 20.0339 35.7081 19.889 35.8169 19.8202C35.9257 19.7514 36.0706 19.7841 36.1394 19.893C36.2335 20.0419 36.3203 20.1981 36.3971 20.3557C36.4539 20.4732 36.4058 20.6127 36.2896 20.6695Z" fill="#E1EAF8"/>
</svg>

<svg xmlns="http://www.w3.org/2000/svg" width="49" height="48" fill="none"><path fill="#E1EAF8" d="M24.562 4.832h-6.89c-.564 0-1.065-.361-1.245-.897L15.616 1.5H26.62l-.812 2.435a1.31 1.31 0 0 1-1.246.897m6.154 36.03v1.45a2.546 2.546 0 0 1-2.546 2.546H16.914c-.906 0-1.64.735-1.64 1.641H28.17a4.187 4.187 0 0 0 4.187-4.187v-.8z"/><path fill="#9A9A9A" d="M28.167 46.828H14.062a4.52 4.52 0 0 1-4.515-4.515v-5.239a.328.328 0 0 1 .656 0v5.239a3.863 3.863 0 0 0 3.859 3.859h14.105a3.863 3.863 0 0 0 3.858-3.859v-9.8a.329.329 0 0 1 .657 0v9.8a4.52 4.52 0 0 1-4.515 4.515M32.025 5.687v6.127a.328.328 0 0 0 .657 0V5.687a4.52 4.52 0 0 0-4.515-4.515H14.062a4.52 4.52 0 0 0-4.515 4.515v28.836a.328.328 0 0 0 .656 0V5.687a3.863 3.863 0 0 1 3.859-3.859h14.105a3.863 3.863 0 0 1 3.858 3.859"/><path fill="#0166FF" d="M22.284 18.84a.34.34 0 0 1-.145-.035l-2.188-1.084a.328.328 0 0 1 .291-.588l2.187 1.084a.328.328 0 0 1-.145.622m-2.056 8.504a.33.33 0 0 1-.31-.434.33.33 0 0 1 .165-.188l2.193-1.075a.328.328 0 0 1 .288.589l-2.192 1.074a.3.3 0 0 1-.144.034m22.453-10.042a.328.328 0 0 1-.164-.613l2.116-1.217a.328.328 0 0 1 .327.569l-2.116 1.217a.3.3 0 0 1-.163.044m-6.254-4.015a.327.327 0 0 1-.325-.372l.324-2.42a.328.328 0 1 1 .65.087l-.324 2.42a.33.33 0 0 1-.325.285"/><path fill="#9A9A9A" d="M31.97 29.94a7.4 7.4 0 0 0 3.408-.819l.47.47c.177.177.409.265.642.265a.9.9 0 0 0 .642-.266l1.757-1.757 3.792 3.792a1.102 1.102 0 0 1-.778 1.877c-.293 0-.57-.114-.777-.322l-3.113-3.112a.249.249 0 1 0-.352.353l3.112 3.111c.302.302.703.468 1.13.468s.828-.166 1.13-.468a1.6 1.6 0 0 0 0-2.26l-3.807-3.807a.91.91 0 0 0-.122-1.132l-.473-.474a7.44 7.44 0 0 0 .81-3.389 7.42 7.42 0 0 0-2.189-5.282A7.42 7.42 0 0 0 31.97 15a7.42 7.42 0 0 0-5.282 2.188A7.42 7.42 0 0 0 24.5 22.47a7.42 7.42 0 0 0 2.188 5.282 7.43 7.43 0 0 0 5.283 2.188m6.782-3.255a.41.41 0 0 1 0 .58l-1.973 1.972a.41.41 0 0 1-.58 0l-.369-.37c.512-.31.99-.682 1.422-1.116a7.5 7.5 0 0 0 1.127-1.439zm-11.71-9.144a6.93 6.93 0 0 1 4.929-2.043c1.862 0 3.613.725 4.93 2.043a6.93 6.93 0 0 1 2.042 4.929A6.92 6.92 0 0 1 36.9 27.4a6.93 6.93 0 0 1-4.93 2.042 6.92 6.92 0 0 1-4.93-2.043A6.93 6.93 0 0 1 25 22.47c0-1.862.726-3.612 2.042-4.93"/><path fill="#E1EAF8" d="M35.889 18.611a5.5 5.5 0 1 0-7.778 7.777 5.5 5.5 0 0 0 7.778-7.777m-.431.761a.234.234 0 0 1-.33 0 4.43 4.43 0 0 0-2.682-1.273.234.234 0 1 1 .047-.465 4.9 4.9 0 0 1 2.965 1.408.23.23 0 0 1 0 .33m.832 1.297a.233.233 0 0 1-.313-.108 4 4 0 0 0-.233-.418.234.234 0 0 1 .395-.25q.142.225.258.463a.234.234 0 0 1-.107.313"/></svg>
